**kern	**kern	**dynam
*part1	*part1	*part1
*staff2	*staff1	*
*I"Piano	*	*
*clefF4	*clefG2	*
*k[b-e-a-]	*k[b-e-a-]	*
=1	=1	=1
[4G	2B- 2e- 2b-	.
4E- 4G]	.	.
=	=	=
*^	*^	*
4A-	2E-	4a-	2c 2e-	.
8GL	.	8gL	.	.
8A-J	.	8a-J	.	.
*v	*v	*	*	*
*	*v	*v	*
=	=	=
2E- 2G	2e- 2b-	.
=	=	=
4.G	4.e- 4.b- 4.ee-	.
8G	8e- 8b- 8dd	.
=	=	=
8A-L	4e- 4a- 4cc	<
8cJ	.	.
8e-L> 8g>	4b-	.
8dJ> 8f>	.	.
=	=	=
*	*^	*
4.c	2an	8e-L	.
.	.	8g-XJ	.
.	.	8fL	.
8c-X	.	8e-J	.
*	*v	*v	*
=	=	=
4B-	4d 4b-	[
4A- 4B-	4d 4f 4b-	p
=	=	=
2G 2B-	2e- 2b-	.
=	=	=
*-	*-	*-
!!!system-decoration: {(s1,s2)}
!!!RDF**kern: > = above
